src/assets/flags/asean.svg

<?xml version="1.0" encoding="UTF-8"?>
<svg xmlns="http://www.w3.org/2000/svg" xmlns:xlink="http://www.w3.org/1999/xlink" width="25px" height="px" viewBox="0 0 25 19" version="1.1">
<g id="surface1">
<rect x="0" y="0" width="25" height="19" style="fill:rgb(0%,22.352941%,65.098041%);fill-opacity:1;stroke:none;"/>
<path style=" stroke:none;fill-rule:nonzero;fill:rgb(100%,100%,100%);fill-opacity:1;" d="M 18.125 9.5 C 18.125 6.351562 15.605469 3.800781 12.5 3.800781 C 9.394531 3.800781 6.875 6.351562 6.875 9.5 C 6.875 12.648438 9.394531 15.199219 12.5 15.199219 C 15.605469 15.199219 18.125 12.648438 18.125 9.5 Z M 18.125 9.5 "/>
<path style=" stroke:none;fill-rule:nonzero;fill:rgb(92.941177%,16.078432%,22.352941%);fill-opacity:1;" d="M 17.863281 9.5 C 17.863281 6.5 15.460938 4.066406 12.5 4.066406 C 9.539062 4.066406 7.136719 6.5 7.136719 9.5 C 7.136719 12.5 9.539062 14.933594 12.5 14.933594 C 15.460938 14.933594 17.863281 12.5 17.863281 9.5 Z M 17.863281 9.5 "/>
<path style=" stroke:none;fill-rule:nonzero;fill:rgb(97.647059%,89.019608%,0%);fill-opacity:1;" d="M 11.054688 9.5 C 10.117188 8.929688 9.6875 7.789062 9.6875 6.648438 L 10.117188 6.648438 L 10.117188 6.6875 C 10.117188 7.066406 10.175781 8.453125 11.207031 9.5 C 10.511719 10.265625 10.121094 11.269531 10.117188 12.3125 L 10.117188 12.351562 L 9.6875 12.351562 C 9.6875 11.210938 10.136719 10.070312 11.054688 9.5 "/>
<path style=" stroke:none;fill-rule:nonzero;fill:rgb(97.647059%,89.019608%,0%);fill-opacity:1;" d="M 10.25 6.6875 L 10.25 6.648438 L 10.699219 6.648438 L 10.699219 6.707031 C 10.699219 7.085938 10.773438 8.417969 11.507812 9.5 C 10.757812 10.582031 10.699219 11.914062 10.699219 12.292969 L 10.699219 12.351562 L 10.25 12.351562 L 10.25 12.3125 C 10.25 11.933594 10.34375 10.546875 11.335938 9.5 C 10.640625 8.734375 10.253906 7.730469 10.25 6.6875 "/>
<path style=" stroke:none;fill-rule:nonzero;fill:rgb(97.647059%,89.019608%,0%);fill-opacity:1;" d="M 11.675781 9.5 L 11.636719 9.460938 C 11.121094 8.636719 10.847656 7.683594 10.851562 6.707031 L 10.851562 6.648438 L 11.261719 6.648438 L 11.261719 6.726562 C 11.261719 7.125 11.320312 8.398438 11.824219 9.5 C 11.457031 10.378906 11.265625 11.320312 11.261719 12.273438 L 11.261719 12.351562 L 10.851562 12.351562 L 10.851562 12.292969 C 10.851562 11.914062 10.886719 10.714844 11.636719 9.539062 "/>
<path style=" stroke:none;fill-rule:nonzero;fill:rgb(97.647059%,89.019608%,0%);fill-opacity:1;" d="M 11.976562 9.5 C 11.59375 8.601562 11.402344 7.628906 11.414062 6.648438 L 11.84375 6.648438 L 11.84375 6.78125 C 11.84375 7.257812 11.882812 8.417969 12.125 9.5 C 11.941406 10.394531 11.84375 11.304688 11.84375 12.21875 L 11.84375 12.351562 L 11.429688 12.351562 L 11.429688 12.273438 C 11.429688 11.875 11.46875 10.5625 11.957031 9.519531 "/>
<path style=" stroke:none;fill-rule:nonzero;fill:rgb(97.647059%,89.019608%,0%);fill-opacity:1;" d="M 12.273438 9.5 C 12.09375 8.605469 12.007812 7.695312 12.011719 6.78125 L 12.011719 6.648438 L 12.425781 6.648438 L 12.425781 12.351562 L 12.011719 12.351562 L 12.011719 12.21875 C 12.011719 11.761719 12.011719 10.582031 12.273438 9.519531 "/>
<path style=" stroke:none;fill-rule:nonzero;fill:rgb(97.647059%,89.019608%,0%);fill-opacity:1;" d="M 13.945312 9.5 C 14.882812 8.929688 15.3125 7.789062 15.3125 6.648438 L 14.882812 6.648438 L 14.882812 6.6875 C 14.882812 7.066406 14.824219 8.453125 13.792969 9.5 C 14.488281 10.265625 14.878906 11.269531 14.882812 12.3125 L 14.882812 12.351562 L 15.3125 12.351562 C 15.3125 11.210938 14.863281 10.070312 13.945312 9.5 "/>
<path style=" stroke:none;fill-rule:nonzero;fill:rgb(97.647059%,89.019608%,0%);fill-opacity:1;" d="M 14.75 6.6875 L 14.75 6.648438 L 14.300781 6.648438 L 14.300781 6.707031 C 14.300781 7.085938 14.226562 8.417969 13.492188 9.5 C 14.242188 10.582031 14.300781 11.914062 14.300781 12.292969 L 14.300781 12.351562 L 14.75 12.351562 L 14.75 12.3125 C 14.75 11.933594 14.65625 10.546875 13.664062 9.5 C 14.359375 8.734375 14.746094 7.730469 14.75 6.6875 "/>
<path style=" stroke:none;fill-rule:nonzero;fill:rgb(97.647059%,89.019608%,0%);fill-opacity:1;" d="M 13.324219 9.5 L 13.363281 9.460938 C 13.878906 8.636719 14.152344 7.683594 14.148438 6.707031 L 14.148438 6.648438 L 13.738281 6.648438 L 13.738281 6.726562 C 13.738281 7.125 13.679688 8.398438 13.175781 9.5 C 13.542969 10.378906 13.734375 11.320312 13.738281 12.273438 L 13.738281 12.351562 L 14.148438 12.351562 L 14.148438 12.292969 C 14.148438 11.914062 14.113281 10.714844 13.363281 9.539062 "/>
<path style=" stroke:none;fill-rule:nonzero;fill:rgb(97.647059%,89.019608%,0%);fill-opacity:1;" d="M 13.023438 9.5 C 13.40625 8.601562 13.597656 7.628906 13.585938 6.648438 L 13.15625 6.648438 L 13.15625 6.78125 C 13.15625 7.257812 13.117188 8.417969 12.875 9.5 C 13.058594 10.394531 13.15625 11.304688 13.15625 12.21875 L 13.15625 12.351562 L 13.570312 12.351562 L 13.570312 12.273438 C 13.570312 11.875 13.53125 10.5625 13.042969 9.519531 "/>
<path style=" stroke:none;fill-rule:nonzero;fill:rgb(97.647059%,89.019608%,0%);fill-opacity:1;" d="M 12.726562 9.5 C 12.90625 8.605469 12.992188 7.695312 12.988281 6.78125 L 12.988281 6.648438 L 12.574219 6.648438 L 12.574219 12.351562 L 12.988281 12.351562 L 12.988281 12.21875 C 12.988281 11.761719 12.988281 10.582031 12.726562 9.519531 "/>
</g>
</svg>

<svg xmlns="http://www.w3.org/2000/svg" width="25" height="px" viewBox="0 0 25 19"><path d="M0 0h25v19H0z" style="fill:#0039a6;fill-opacity:1;stroke:none"/><path d="M18.125 9.5c0-3.148-2.52-5.7-5.625-5.7S6.875 6.353 6.875 9.5s2.52 5.7 5.625 5.7 5.625-2.552 5.625-5.7m0 0" style="stroke:none;fill-rule:nonzero;fill:#fff;fill-opacity:1"/><path d="M17.863 9.5c0-3-2.402-5.434-5.363-5.434-2.96 0-5.363 2.434-5.363 5.434s2.402 5.434 5.363 5.434c2.96 0 5.363-2.434 5.363-5.434m0 0" style="stroke:none;fill-rule:nonzero;fill:#ed2939;fill-opacity:1"/><path d="M11.055 9.5c-.938-.57-1.367-1.71-1.367-2.852h.43v.04c0 .378.058 1.765 1.089 2.812a4.2 4.2 0 0 0-1.09 2.813v.039h-.43c0-1.141.45-2.282 1.368-2.852" style="stroke:none;fill-rule:nonzero;fill:#f9e300;fill-opacity:1"/><path d="M10.25 6.688v-.04h.45v.059c0 .379.073 1.711.808 2.793-.75 1.082-.809 2.414-.809 2.793v.059h-.449v-.04c0-.378.094-1.765 1.086-2.812a4.2 4.2 0 0 1-1.086-2.812" style="stroke:none;fill-rule:nonzero;fill:#f9e300;fill-opacity:1"/><path d="m11.676 9.5-.04-.04a5.15 5.15 0 0 1-.784-2.753v-.059h.41v.079c0 .398.058 1.671.562 2.773a7.3 7.3 0 0 0-.562 2.773v.079h-.41v-.059c0-.379.035-1.578.785-2.754" style="stroke:none;fill-rule:nonzero;fill:#f9e300;fill-opacity:1"/><path d="M11.977 9.5a7.1 7.1 0 0 1-.563-2.852h.43v.133c0 .477.039 1.637.281 2.719a13.5 13.5 0 0 0-.281 2.719v.133h-.414v-.079c0-.398.039-1.71.527-2.753" style="stroke:none;fill-rule:nonzero;fill:#f9e300;fill-opacity:1"/><path d="M12.273 9.5a13.5 13.5 0 0 1-.261-2.719v-.133h.414v5.704h-.414v-.133c0-.457 0-1.637.261-2.7M13.945 9.5c.938-.57 1.367-1.71 1.367-2.852h-.43v.04c0 .378-.058 1.765-1.089 2.812a4.2 4.2 0 0 1 1.09 2.813v.039h.43c0-1.141-.45-2.282-1.368-2.852" style="stroke:none;fill-rule:nonzero;fill:#f9e300;fill-opacity:1"/><path d="M14.75 6.688v-.04h-.45v.059c0 .379-.073 1.711-.808 2.793.75 1.082.809 2.414.809 2.793v.059h.449v-.04c0-.378-.094-1.765-1.086-2.812a4.2 4.2 0 0 0 1.086-2.812" style="stroke:none;fill-rule:nonzero;fill:#f9e300;fill-opacity:1"/><path d="m13.324 9.5.04-.04a5.15 5.15 0 0 0 .784-2.753v-.059h-.41v.079c0 .398-.058 1.671-.562 2.773.367.879.558 1.82.562 2.773v.079h.41v-.059c0-.379-.035-1.578-.785-2.754" style="stroke:none;fill-rule:nonzero;fill:#f9e300;fill-opacity:1"/><path d="M13.023 9.5a7.1 7.1 0 0 0 .563-2.852h-.43v.133c0 .477-.039 1.637-.281 2.719.184.895.281 1.805.281 2.719v.133h.414v-.079c0-.398-.039-1.71-.527-2.753" style="stroke:none;fill-rule:nonzero;fill:#f9e300;fill-opacity:1"/><path d="M12.727 9.5c.18-.895.265-1.805.261-2.719v-.133h-.414v5.704h.414v-.133c0-.457 0-1.637-.261-2.7" style="stroke:none;fill-rule:nonzero;fill:#f9e300;fill-opacity:1"/></svg>
